X: 1
T: Battle Hymn of the Republic
A: Julia Ward Howe
M:C|
L:1/8
K:Bb
F2|"Bb"F3/ F/ F3/ E/ D3/ F/ B3/ c/|
w:Mine eyes have seen the glo-ry of the
d3/ d/ d3/ c/ B2 B3/ A/| "Eb" G3/ G/ G3/ A/ B3/ A/ B3/ G/|
w:com-ing of the Lord; He is tramp-ling out the vin-tage where the
"Bb"F3/ G/ F3/ D/ F2 "F7"F3/ F/|"Bb"F3/ F/ F3/ E/ D3/ F/ B3/ c/|
w:grapes of wrath are stored; He has loosed the fate-ful light-ning of his
d3/ d/ d3/ c/ B2 B2|c2 c2 B2 A2| B6 z2|
w:ter-ri-ble swift sword; His truth is march-ing on.
F3 E D3/ F/ B3/ c/|d4 "Gm"B2 B2|"Cm"c2 c2 "F"B2 A2| "Bb"B5||
w: Glo-ry, glo-ry, Hal-le-lu-ja! His truth is march-ing on.
W:I have seen Him in the watch-fires of a hundred circling camps,
W:They have builded Him an altar in the evening dews and damps;
W:I can read His righteous sentence by the dim and flaring lamps:
W:His day is marching on.
W:
W:I have read a fiery gospel writ in burnished rows of steel:
W:"As ye deal with My contemners, so with you My grace shall deal";
W:Let the Hero, born of woman, crush the serpent with His heel,
W:Since God is marching on.
W:
W:He has sounded forth the trumpet that shall never call retreat;
W:He is sifting out the hearts of men before His judgment-seat;
W:Oh, be swift, my soul, to answer Him! Be jubilant, my feet!
W:Our God is marching on.
W:
W:In the beauty of the lilies Christ was born across the sea,
W:With a glory in His bosom that transfigures you and me.
W:As He died to make men holy, let us die to make men free,
W:While God is marching on.

